X:158
T:RVW2/2/158 The Powers Above
C:Mr and Mrs Verrall, Horsham, Sussex, 8 October 1904
L:1/4
Q:1/4=120
M:3/4
I:linebreak $
K:G
"^(Editorial suggestion " G | G B d | g f g | e c A | (G F) G/G/ |$ A A B | c"^(a)" d e | 
w: One|eve- ning of|late as I|walked all a-|lone _ by a|clear cry- stal|ri- ver I|
A3/2 B/ c | d2 d/d/ |$ g f g | e A (g/f/) | e c A | (G F) (G/B/) |$ d3/2 B/ c/d/ | (e/f/) g d | 
w: heard a fine|song of a|beau- ti- ful|dam- sel whose _|voice was so|clear _ how _|hap- py I should|be _ if my|
(e/c/) B A | G2 ||$ G | G B d | g f g | e c A | G F G/G/ |$ A A B | c"^(a) var." B e | A3/2 B/ c | 
w: true _ love was|here.|||||||||
d2 d/d/ |$ g f g | e A g/f/ | e c A | G F G/B/ |$ d3/2 B/ c/d/ | e/f/ g d | e/c/ B A | G2 |] 
w: |||||||||



